src/food-drink/food-marine/1F99E.svg

<?xml version="1.0" encoding="UTF-8"?>
<svg id="emoji" xmlns="http://www.w3.org/2000/svg" viewBox="0 0 72 72">
  <g id="grid">
    <path d="m68,4v64H4V4h64m4-4H0v72h72V0Z" fill="#b3b3b3"/>
    <path d="m12.923,10.9583h46.1539c1.0621,0,1.9231.861,1.9231,1.9231h0v46.1538c0,1.0621-.861,1.9231-1.9231,1.9231H12.9231c-1.0621,0-1.9231-.861-1.9231-1.9231h0V12.8813c0-1.062.861-1.923,1.923-1.923h0Z" fill="none" stroke="#00a5ff" stroke-miterlimit="10" stroke-width=".1"/>
    <rect x="16" y="4" width="40" height="64" rx="2.2537" ry="2.2537" fill="none" stroke="#00a5ff" stroke-miterlimit="10" stroke-width=".1"/>
    <rect x="4" y="16" width="64" height="40" rx="2.2537" ry="2.2537" fill="none" stroke="#00a5ff" stroke-miterlimit="10" stroke-width=".1"/>
    <circle cx="36" cy="36" r="29" fill="none" stroke="#00a5ff" stroke-miterlimit="10" stroke-width=".1"/>
  </g>
  <g id="color">
    <path d="m28.8575,27.8671l-7.3195-6.8671,5.2032-7.41s12.1176-.7833,18.2915-.0973,4.9673,7.5073,4.9673,7.5073l-7.9372,7.8961-13.2053-1.029Z" fill="#fff"/>
    <path d="m39,53l-3,1.375-3-1.375-4,11c1.1921-.7964,2.5702-1.2701,4-1.375,1.1563-.0181,2.2589.4873,3,1.375.7411-.8877,1.8437-1.3931,3-1.375,1.4298.1049,2.8079.5786,4,1.375l-4-11Z" fill="#d22f27"/>
    <path d="m42.5136,32.4562c-.0811-.4646-.1721-.9271-.2728-1.3875-.4667-2.4375-1.2697-4.7985-2.386-7.0151-.03-.0558-.0686-.1051-.0995-.16-.0862-1.5833-1.3668-2.8388-2.9515-2.8936h-1.8485c-1.5845.0548-2.8651,1.3102-2.9515,2.8933-.031.0552-.0692.1045-.1.16-1.1162,2.2166-1.9192,4.5776-2.3859,7.0151-.1007.46-.1917.9225-.2728,1.3875-.6792,3.8858-.647,7.8626.0951,11.7368.1213.6283.2613,1.2521.42,1.8713.8919,3.4863,2.3088,6.8167,4.2021,9.8769.1394.1992.3066.3775.4964.5295.4126.3103.9063.4943,1.4213.5296.5146-.0354,1.0078-.2193,1.42-.5293.1899-.152.357-.3303.4965-.5295,1.8933-3.0602,3.3102-6.3906,4.2021-9.8769.1583-.6188.2983-1.2426.42-1.8713.7421-3.8742.7743-7.8511.095-11.7368Z" fill="#d22f27"/>
    <path d="m29.76,46.0643c.2593,1.0132.5759,2.0088.9226,2.9929,3.3335-1.3772,7.0708-1.41,10.428-.0916.3333-.9543.6366-1.92.8877-2.9013.1583-.6188.2983-1.2426.42-1.8713.7421-3.8742.7743-7.8511.095-11.7368-.081-.4646-.1719-.9271-.2727-1.3875-.4667-2.4375-1.2697-4.7985-2.386-7.0151-.03-.0558-.0685-.1051-.0995-.16-.0862-1.5832-1.3667-2.8387-2.9513-2.8936h-1.8485c-1.5845.0548-2.8651,1.3101-2.9515,2.8932-.031.0553-.0692.1046-.1.16-1.1162,2.2167-1.9192,4.5776-2.386,7.0151-.1006.46-.1915.9225-.2727,1.3875-.6792,3.8858-.647,7.8626.0951,11.7368.1216.6285.2615,1.2524.4198,1.8717Z" fill="#ea5a47"/>
    <path d="m29.4432,44.65c4.0191-2.1572,8.8415-2.2021,12.9-.12.0231-.1129.0538-.2241.0757-.3373.7421-3.8742.7743-7.8511.095-11.7368-.081-.4646-.1719-.9271-.2727-1.3875-.4667-2.4375-1.2697-4.7985-2.386-7.0151-.03-.0558-.0685-.1051-.0995-.16-.0864-1.5833-1.3672-2.8387-2.9519-2.8933h-1.8485c-1.5845.0548-2.8651,1.3101-2.9515,2.8932-.031.0553-.0692.1046-.1.16-1.1162,2.2167-1.9192,4.5776-2.386,7.0151-.1006.46-.1915.9225-.2727,1.3875-.6792,3.8858-.647,7.8626.0951,11.7368.0298.1539.0711.3047.103.4574Z" fill="#d22f27"/>
    <path d="m36,38c2.4416-.0062,4.8406.6394,6.9494,1.87.1364-2.48-.0098-4.9674-.4359-7.4143-.081-.4646-.1719-.9271-.2727-1.3875-.4667-2.4375-1.2697-4.7985-2.386-7.0151-.03-.0558-.0685-.1051-.0995-.16-.0865-1.5831-1.367-2.8383-2.9515-2.8931h-1.8485c-1.5845.0548-2.8651,1.3101-2.9515,2.8932-.031.0553-.0692.1046-.1.16-1.1162,2.2167-1.9192,4.5776-2.386,7.0151-.1006.46-.1915.9225-.2727,1.3875-.4324,2.4899-.575,5.0215-.4251,7.5442,2.1628-1.3168,4.6479-2.0091,7.18-2Z" fill="#ea5a47"/>
    <path d="m36,33c2.3941-.005,4.7479.6163,6.8276,1.8022-.0789-.7855-.1784-1.5688-.3141-2.346-.081-.4646-.1719-.9271-.2727-1.3875-.4667-2.4375-1.2697-4.7985-2.386-7.0151-.03-.0558-.0685-.1051-.0995-.16-.0862-1.5833-1.3668-2.8388-2.9515-2.8936h-1.8485c-1.5845.0548-2.8651,1.3101-2.9515,2.8932-.031.0553-.0692.1046-.1.16-1.1162,2.2167-1.9192,4.5776-2.386,7.0151-.1006.46-.1915.9225-.2727,1.3875-.1439.8246-.249,1.6559-.3292,2.49,2.1405-1.2808,4.5897-1.9535,7.0841-1.9458Z" fill="#d22f27"/>
    <path d="m29.538,30c-.5253.94-5.4979.1019-9-3-1.0848-.9608-4.2232-3.7406-4-8,.2014-3.6335,2.5683-6.7893,6-8,1.6296-.4974,3.3704-.4974,5,0-1.1435,2.2418-2.4664,4.59-4,7-.6637,1.0429-1.3303,2.0429-2,3,.7247.7036,1.7686,1.7319,3,3,3.5345,3.64,5.302,5.46,5,6Z" fill="#ea5a47"/>
    <path d="m41,30c.5252.94,5.4979.1019,9-3,1.0848-.9608,4.2232-3.7406,4-8-.2014-3.6335-2.5683-6.7893-6-8-1.6296-.4974-3.3704-.4974-5,0,1.1434,2.2418,2.4664,4.59,4,7,.6637,1.0429,1.3303,2.0429,2,3-.7248.7036-1.7686,1.7319-3,3-3.5345,3.64-5.3017,5.46-5,6Z" fill="#ea5a47"/>
  </g>
  <g id="line">
    <polyline points="43 33 50 33 55 31" fill="none" stroke="#000" stroke-linecap="round" stroke-linejoin="round" stroke-width="2"/>
    <polyline points="42.827 34.277 51.747 36.423 56.059 35.433" fill="none" stroke="#000" stroke-linecap="round" stroke-linejoin="round" stroke-width="2"/>
    <polyline points="44.219 35.901 52.227 39.961 55 43" fill="none" stroke="#000" stroke-linecap="round" stroke-linejoin="round" stroke-width="2"/>
    <polyline points="44.1 36.744 48.042 42.529 47.576 46.476" fill="none" stroke="#000" stroke-linecap="round" stroke-linejoin="round" stroke-width="2"/>
    <polyline points="29 33 22 33 17 31" fill="none" stroke="#000" stroke-linecap="round" stroke-linejoin="round" stroke-width="2"/>
    <polyline points="29.173 34.277 20.253 36.423 15.941 35.433" fill="none" stroke="#000" stroke-linecap="round" stroke-linejoin="round" stroke-width="2"/>
    <polyline points="27.781 35.901 19.773 39.961 17 43" fill="none" stroke="#000" stroke-linecap="round" stroke-linejoin="round" stroke-width="2"/>
    <polyline points="27.9 36.744 23.958 42.529 24.424 46.476" fill="none" stroke="#000" stroke-linecap="round" stroke-linejoin="round" stroke-width="2"/>
    <path d="m37.0909,21c-.1566-2.6628-.1566-5.3324,0-7.9952.1422-3.0924.353-4.0369.9849-4.5687,1.58-1.33,2.6166.7838,2.9242,1.0159" fill="none" stroke="#000" stroke-linecap="round" stroke-linejoin="round" stroke-width="2"/>
    <path d="m34.8931,21c.1568-2.6628.1568-5.3324,0-7.9952-.1422-3.0924-.3529-4.0369-.9848-4.5687-1.58-1.33-2.6166.7838-2.9242,1.0159" fill="none" stroke="#000" stroke-linecap="round" stroke-linejoin="round" stroke-width="2"/>
    <line x1="28.3644" y1="15.1851" x2="24.7115" y2="16.8149" fill="none" stroke="#000" stroke-linecap="round" stroke-linejoin="round" stroke-width="2"/>
    <path d="m32.645,53.9761l-3.645,10.0239c1.1921-.7964,2.5702-1.2701,4-1.375,1.1563-.0181,2.2589.4873,3,1.375v-6.6944" fill="none" stroke="#000" stroke-linecap="round" stroke-linejoin="round" stroke-width="2"/>
    <path d="m39.35,53.9629l3.65,10.0371c-1.1921-.7964-2.5702-1.2701-4-1.375-1.1563-.0181-2.2589.4873-3,1.375v-6.6944" fill="none" stroke="#000" stroke-linecap="round" stroke-linejoin="round" stroke-width="2"/>
    <path d="m29.538,30c-.5253.94-5.4979.1019-9-3-1.0848-.9608-4.2232-3.7406-4-8,.2014-3.6335,2.5683-6.7893,6-8,1.6296-.4974,3.3704-.4974,5,0-1.1435,2.2418-2.4664,4.59-4,7-.6637,1.0429-1.3303,2.0429-2,3,.7247.7036,1.7686,1.7319,3,3,3.5345,3.64,5.302,5.46,5,6Z" fill="none" stroke="#000" stroke-linecap="round" stroke-linejoin="round" stroke-width="2"/>
    <path d="m42.5136,32.4562c-.0811-.4646-.1721-.9271-.2728-1.3875-.4667-2.4375-1.2697-4.7985-2.386-7.0151-.03-.0558-.0686-.1051-.0995-.16-.0862-1.5833-1.3668-2.8388-2.9515-2.8936h-1.8485c-1.5845.0548-2.8651,1.3102-2.9515,2.8933-.031.0552-.0692.1045-.1.16-1.1162,2.2166-1.9192,4.5776-2.3859,7.0151-.1007.46-.1917.9225-.2728,1.3875-.6792,3.8858-.647,7.8626.0951,11.7368.1213.6283.2613,1.2521.42,1.8713.8919,3.4863,2.3088,6.8167,4.2021,9.8769.1394.1992.3066.3775.4964.5295.4126.3103.9063.4943,1.4213.5296.5146-.0354,1.0078-.2193,1.42-.5293.1899-.152.357-.3303.4965-.5295,1.8933-3.0602,3.3102-6.3906,4.2021-9.8769.1583-.6188.2983-1.2426.42-1.8713.7421-3.8742.7743-7.8511.095-11.7368Z" fill="none" stroke="#000" stroke-linejoin="round" stroke-width="2"/>
    <path d="m36,33c2.3941-.005,4.7479.6163,6.8276,1.8022-.0789-.7855-.1784-1.5688-.3141-2.346-.081-.4646-.1719-.9271-.2727-1.3875-.4667-2.4375-1.2697-4.7985-2.386-7.0151-.03-.0558-.0685-.1051-.0995-.16-.0862-1.5833-1.3668-2.8388-2.9515-2.8936h-1.8485c-1.5845.0548-2.8651,1.3101-2.9515,2.8932-.031.0553-.0692.1046-.1.16-1.1162,2.2167-1.9192,4.5776-2.386,7.0151-.1006.46-.1915.9225-.2727,1.3875-.1439.8246-.249,1.6559-.3292,2.49,2.1405-1.2808,4.5897-1.9535,7.0841-1.9458Z" fill="none" stroke="#000" stroke-linecap="round" stroke-linejoin="round" stroke-width="2"/>
    <path d="m42,30c.5252.94,5.4979.1019,9-3,1.0848-.9608,4.2232-3.7406,4-8-.2014-3.6335-2.5683-6.7893-6-8-1.6296-.4974-3.3704-.4974-5,0,1.1434,2.2418,2.4664,4.59,4,7,.6637,1.0429,1.3303,2.0429,2,3-.7248.7036-1.7686,1.7319-3,3-3.5345,3.64-5.3017,5.46-5,6Z" fill="none" stroke="#000" stroke-linecap="round" stroke-linejoin="round" stroke-width="2"/>
    <line x1="43.1736" y1="15.1851" x2="46.8264" y2="16.8149" fill="none" stroke="#000" stroke-linecap="round" stroke-linejoin="round" stroke-width="2"/>
    <path d="m29.4432,44.65c4.0191-2.1572,8.8415-2.2021,12.9-.12.0231-.1129.0538-.2241.0757-.3373.7421-3.8742.7743-7.8511.095-11.7368-.081-.4646-.1719-.9271-.2727-1.3875-.4667-2.4375-1.2697-4.7985-2.386-7.0151-.03-.0558-.0685-.1051-.0995-.16-.0864-1.5833-1.3672-2.8387-2.9519-2.8933h-1.8485c-1.5845.0548-2.8651,1.3101-2.9515,2.8932-.031.0553-.0692.1046-.1.16-1.1162,2.2167-1.9192,4.5776-2.386,7.0151-.1006.46-.1915.9225-.2727,1.3875-.6792,3.8858-.647,7.8626.0951,11.7368.0298.1539.0711.3047.103.4574Z" fill="none" stroke="#000" stroke-linecap="round" stroke-linejoin="round" stroke-width="2"/>
    <path d="m29.76,46.0643c.2593,1.0132.5759,2.0088.9226,2.9929,3.3335-1.3772,7.0708-1.41,10.428-.0916.3333-.9543.6366-1.92.8877-2.9013.1583-.6188.2983-1.2426.42-1.8713.7421-3.8742.7743-7.8511.095-11.7368-.081-.4646-.1719-.9271-.2727-1.3875-.4667-2.4375-1.2697-4.7985-2.386-7.0151-.03-.0558-.0685-.1051-.0995-.16-.0862-1.5832-1.3667-2.8387-2.9513-2.8936h-1.8485c-1.5845.0548-2.8651,1.3101-2.9515,2.8932-.031.0553-.0692.1046-.1.16-1.1162,2.2167-1.9192,4.5776-2.386,7.0151-.1006.46-.1915.9225-.2727,1.3875-.6792,3.8858-.647,7.8626.0951,11.7368.1216.6285.2615,1.2524.4198,1.8717Z" fill="none" stroke="#000" stroke-linecap="round" stroke-linejoin="round" stroke-width="2"/>
    <path d="m36,38c2.4416-.0062,4.8406.6394,6.9494,1.87.1364-2.48-.0098-4.9674-.4359-7.4143-.081-.4646-.1719-.9271-.2727-1.3875-.4667-2.4375-1.2697-4.7985-2.386-7.0151-.03-.0558-.0685-.1051-.0995-.16-.0865-1.5831-1.367-2.8383-2.9515-2.8931h-1.8485c-1.5845.0548-2.8651,1.3101-2.9515,2.8932-.031.0553-.0692.1046-.1.16-1.1162,2.2167-1.9192,4.5776-2.386,7.0151-.1006.46-.1915.9225-.2727,1.3875-.4324,2.4899-.575,5.0215-.4251,7.5442,2.1628-1.3168,4.6479-2.0091,7.18-2Z" fill="none" stroke="#000" stroke-linecap="round" stroke-linejoin="round" stroke-width="2"/>
  </g>
</svg>

<svg id="emoji" viewBox="0 0 72 72" xmlns="http://www.w3.org/2000/svg">
  <g id="grid">
    <path fill="#b3b3b3" d="M68,4V68H4V4H68m4-4H0V72H72V0Z"/>
    <path fill="none" stroke="#00a5ff" stroke-miterlimit="10" stroke-width="0.1" d="M12.923,10.9583H59.0769A1.9231,1.9231,0,0,1,61,12.8814V59.0352a1.9231,1.9231,0,0,1-1.9231,1.9231H12.9231A1.9231,1.9231,0,0,1,11,59.0352V12.8813A1.923,1.923,0,0,1,12.923,10.9583Z"/>
    <rect x="16" y="4" rx="2.2537" width="40" height="64" fill="none" stroke="#00a5ff" stroke-miterlimit="10" stroke-width="0.1"/>
    <rect x="16" y="4" rx="2.2537" width="40" height="64" transform="translate(72) rotate(90)" fill="none" stroke="#00a5ff" stroke-miterlimit="10" stroke-width="0.1"/>
    <circle cx="36" cy="36" r="29" fill="none" stroke="#00a5ff" stroke-miterlimit="10" stroke-width="0.1"/>
  </g>
  <g id="color">
    <path fill="#d22f27" d="M39,53l-3,1.375L33,53,29,64a8.2931,8.2931,0,0,1,4-1.375A3.83,3.83,0,0,1,36,64a3.83,3.83,0,0,1,3-1.375A8.2931,8.2931,0,0,1,43,64Z"/>
    <path fill="#d22f27" d="M42.5136,32.4562q-.1217-.6969-.2728-1.3875a26.8047,26.8047,0,0,0-2.386-7.0151c-.03-.0558-.0686-.1051-.0995-.16A3.0619,3.0619,0,0,0,36.8038,21H34.9553a3.0619,3.0619,0,0,0-2.9515,2.8933c-.031.0552-.0692.1045-.1.16a26.8045,26.8045,0,0,0-2.3859,7.0151q-.1511.69-.2728,1.3875a32.5738,32.5738,0,0,0,.0951,11.7368q.182.9425.42,1.8713a35.4912,35.4912,0,0,0,4.2021,9.8769,2.5544,2.5544,0,0,0,.4964.5295A2.6679,2.6679,0,0,0,35.88,57,2.6673,2.6673,0,0,0,37.3,56.4707a2.5547,2.5547,0,0,0,.4965-.5295,35.4912,35.4912,0,0,0,4.2021-9.8769q.2374-.9282.42-1.8713A32.5738,32.5738,0,0,0,42.5136,32.4562Z"/>
    <path fill="#ea5a47" d="M29.76,46.0643c.2593,1.0132.5759,2.0088.9226,2.9929a13.9528,13.9528,0,0,1,10.428-.0916c.3333-.9543.6366-1.92.8877-2.9013q.2374-.9282.42-1.8713a32.5716,32.5716,0,0,0,.095-11.7368q-.1215-.6969-.2727-1.3875a26.8047,26.8047,0,0,0-2.386-7.0151c-.03-.0558-.0685-.1051-.0995-.16A3.0619,3.0619,0,0,0,36.8038,21H34.9553a3.0619,3.0619,0,0,0-2.9515,2.8932c-.031.0553-.0692.1046-.1.16a26.812,26.812,0,0,0-2.386,7.0151q-.1509.69-.2727,1.3875a32.5739,32.5739,0,0,0,.0951,11.7368Q29.5226,45.1353,29.76,46.0643Z"/>
    <path fill="#d22f27" d="M29.4432,44.65a13.88,13.88,0,0,1,12.9-.12c.0231-.1129.0538-.2241.0757-.3373a32.5716,32.5716,0,0,0,.095-11.7368q-.1215-.6969-.2727-1.3875a26.8047,26.8047,0,0,0-2.386-7.0151c-.03-.0558-.0685-.1051-.0995-.16A3.0619,3.0619,0,0,0,36.8038,21H34.9553a3.0619,3.0619,0,0,0-2.9515,2.8932c-.031.0553-.0692.1046-.1.16a26.812,26.812,0,0,0-2.386,7.0151q-.1509.69-.2727,1.3875a32.5739,32.5739,0,0,0,.0951,11.7368C29.37,44.3465,29.4113,44.4973,29.4432,44.65Z"/>
    <path fill="#ea5a47" d="M36,38a13.7192,13.7192,0,0,1,6.9494,1.87,32.738,32.738,0,0,0-.4359-7.4143q-.1215-.6969-.2727-1.3875a26.8047,26.8047,0,0,0-2.386-7.0151c-.03-.0558-.0685-.1051-.0995-.16A3.0619,3.0619,0,0,0,36.8038,21H34.9553a3.0619,3.0619,0,0,0-2.9515,2.8932c-.031.0553-.0692.1046-.1.16a26.812,26.812,0,0,0-2.386,7.0151q-.1509.69-.2727,1.3875A32.7391,32.7391,0,0,0,28.82,40,13.7117,13.7117,0,0,1,36,38Z"/>
    <path fill="#d22f27" d="M36,33a13.7256,13.7256,0,0,1,6.8276,1.8022c-.0789-.7855-.1784-1.5688-.3141-2.346q-.1215-.6969-.2727-1.3875a26.8047,26.8047,0,0,0-2.386-7.0151c-.03-.0558-.0685-.1051-.0995-.16A3.0619,3.0619,0,0,0,36.8038,21H34.9553a3.0619,3.0619,0,0,0-2.9515,2.8932c-.031.0553-.0692.1046-.1.16a26.812,26.812,0,0,0-2.386,7.0151q-.1509.69-.2727,1.3875c-.1439.8246-.249,1.6559-.3292,2.49A13.7141,13.7141,0,0,1,36,33Z"/>
    <path fill="#ea5a47" d="M29.538,30c-.5253.94-5.4979.1019-9-3-1.0848-.9608-4.2232-3.7406-4-8a9.0123,9.0123,0,0,1,6-8,8.563,8.563,0,0,1,5,0c-1.1435,2.2418-2.4664,4.59-4,7q-.9955,1.5643-2,3c.7247.7036,1.7686,1.7319,3,3C28.0725,27.64,29.84,29.46,29.538,30Z"/>
    <path fill="#ea5a47" d="M15.038,20.5c-.0028.0525-.0135.1023-.0183.1541-.0163-.0444-.036-.0865-.0528-.13Z"/>
    <path fill="#ea5a47" d="M41,30c.5252.94,5.4979.1019,9-3,1.0848-.9608,4.2232-3.7406,4-8a9.0123,9.0123,0,0,0-6-8,8.563,8.563,0,0,0-5,0c1.1434,2.2418,2.4664,4.59,4,7q.9955,1.5643,2,3c-.7248.7036-1.7686,1.7319-3,3C42.4655,27.64,40.6983,29.46,41,30Z"/>
  </g>
  <g id="line">
    <polyline fill="none" stroke="#000" stroke-linecap="round" stroke-linejoin="round" stroke-width="2" points="43 33 50 33 55 31"/>
    <polyline fill="none" stroke="#000" stroke-linecap="round" stroke-linejoin="round" stroke-width="2" points="42.827 34.277 51.747 36.423 56.059 35.433"/>
    <polyline fill="none" stroke="#000" stroke-linecap="round" stroke-linejoin="round" stroke-width="2" points="44.219 35.901 52.227 39.961 55 43"/>
    <polyline fill="none" stroke="#000" stroke-linecap="round" stroke-linejoin="round" stroke-width="2" points="44.1 36.744 48.042 42.529 47.576 46.476"/>
    <polyline fill="none" stroke="#000" stroke-linecap="round" stroke-linejoin="round" stroke-width="2" points="29 33 22 33 17 31"/>
    <polyline fill="none" stroke="#000" stroke-linecap="round" stroke-linejoin="round" stroke-width="2" points="29.173 34.277 20.253 36.423 15.941 35.433"/>
    <polyline fill="none" stroke="#000" stroke-linecap="round" stroke-linejoin="round" stroke-width="2" points="27.781 35.901 19.773 39.961 17 43"/>
    <polyline fill="none" stroke="#000" stroke-linecap="round" stroke-linejoin="round" stroke-width="2" points="27.9 36.744 23.958 42.529 24.424 46.476"/>
    <path fill="none" stroke="#000" stroke-linecap="round" stroke-linejoin="round" stroke-width="2" d="M37.0909,21a68.0771,68.0771,0,0,1,0-7.9952c.1422-3.0924.353-4.0369.9849-4.5687,1.58-1.33,2.6166.7838,2.9242,1.0159"/>
    <path fill="none" stroke="#000" stroke-linecap="round" stroke-linejoin="round" stroke-width="2" d="M34.8931,21a68.0213,68.0213,0,0,0,0-7.9952c-.1422-3.0924-.3529-4.0369-.9848-4.5687-1.58-1.33-2.6166.7838-2.9242,1.0159"/>
    <line x1="28.3644" x2="24.7115" y1="15.1851" y2="16.8149" fill="none" stroke="#000" stroke-linecap="round" stroke-linejoin="round" stroke-width="2"/>
    <path fill="none" stroke="#000" stroke-linecap="round" stroke-linejoin="round" stroke-width="2" d="M32.645,53.9761,29,64a8.2931,8.2931,0,0,1,4-1.375A3.83,3.83,0,0,1,36,64V57.3056"/>
    <path fill="none" stroke="#000" stroke-linecap="round" stroke-linejoin="round" stroke-width="2" d="M39.35,53.9629,43,64a8.2931,8.2931,0,0,0-4-1.375A3.83,3.83,0,0,0,36,64V57.3056"/>
    <path fill="none" stroke="#000" stroke-linecap="round" stroke-linejoin="round" stroke-width="2" d="M29.538,30c-.5253.94-5.4979.1019-9-3-1.0848-.9608-4.2232-3.7406-4-8a9.0123,9.0123,0,0,1,6-8,8.563,8.563,0,0,1,5,0c-1.1435,2.2418-2.4664,4.59-4,7q-.9955,1.5643-2,3c.7247.7036,1.7686,1.7319,3,3C28.0725,27.64,29.84,29.46,29.538,30Z"/>
    <path fill="none" stroke="#000" stroke-linejoin="round" stroke-width="2" d="M42.5136,32.4562q-.1217-.6969-.2728-1.3875a26.8047,26.8047,0,0,0-2.386-7.0151c-.03-.0558-.0686-.1051-.0995-.16A3.0619,3.0619,0,0,0,36.8038,21H34.9553a3.0619,3.0619,0,0,0-2.9515,2.8933c-.031.0552-.0692.1045-.1.16a26.8045,26.8045,0,0,0-2.3859,7.0151q-.1511.69-.2728,1.3875a32.5738,32.5738,0,0,0,.0951,11.7368q.182.9425.42,1.8713a35.4912,35.4912,0,0,0,4.2021,9.8769,2.5544,2.5544,0,0,0,.4964.5295A2.6679,2.6679,0,0,0,35.88,57,2.6673,2.6673,0,0,0,37.3,56.4707a2.5547,2.5547,0,0,0,.4965-.5295,35.4912,35.4912,0,0,0,4.2021-9.8769q.2374-.9282.42-1.8713A32.5738,32.5738,0,0,0,42.5136,32.4562Z"/>
    <path fill="none" stroke="#000" stroke-linecap="round" stroke-linejoin="round" stroke-width="2" d="M36,33a13.7256,13.7256,0,0,1,6.8276,1.8022c-.0789-.7855-.1784-1.5688-.3141-2.346q-.1215-.6969-.2727-1.3875a26.8047,26.8047,0,0,0-2.386-7.0151c-.03-.0558-.0685-.1051-.0995-.16A3.0619,3.0619,0,0,0,36.8038,21H34.9553a3.0619,3.0619,0,0,0-2.9515,2.8932c-.031.0553-.0692.1046-.1.16a26.812,26.812,0,0,0-2.386,7.0151q-.1509.69-.2727,1.3875c-.1439.8246-.249,1.6559-.3292,2.49A13.7141,13.7141,0,0,1,36,33Z"/>
    <path fill="none" stroke="#000" stroke-linecap="round" stroke-linejoin="round" stroke-width="2" d="M42,30c.5252.94,5.4979.1019,9-3,1.0848-.9608,4.2232-3.7406,4-8a9.0123,9.0123,0,0,0-6-8,8.563,8.563,0,0,0-5,0c1.1434,2.2418,2.4664,4.59,4,7q.9955,1.5643,2,3c-.7248.7036-1.7686,1.7319-3,3C43.4655,27.64,41.6983,29.46,42,30Z"/>
    <line x1="43.1736" x2="46.8264" y1="15.1851" y2="16.8149" fill="none" stroke="#000" stroke-linecap="round" stroke-linejoin="round" stroke-width="2"/>
    <path fill="none" stroke="#000" stroke-linecap="round" stroke-linejoin="round" stroke-width="2" d="M29.4432,44.65a13.88,13.88,0,0,1,12.9-.12c.0231-.1129.0538-.2241.0757-.3373a32.5716,32.5716,0,0,0,.095-11.7368q-.1215-.6969-.2727-1.3875a26.8047,26.8047,0,0,0-2.386-7.0151c-.03-.0558-.0685-.1051-.0995-.16A3.0619,3.0619,0,0,0,36.8038,21H34.9553a3.0619,3.0619,0,0,0-2.9515,2.8932c-.031.0553-.0692.1046-.1.16a26.812,26.812,0,0,0-2.386,7.0151q-.1509.69-.2727,1.3875a32.5739,32.5739,0,0,0,.0951,11.7368C29.37,44.3465,29.4113,44.4973,29.4432,44.65Z"/>
    <path fill="none" stroke="#000" stroke-linecap="round" stroke-linejoin="round" stroke-width="2" d="M29.76,46.0643c.2593,1.0132.5759,2.0088.9226,2.9929a13.9528,13.9528,0,0,1,10.428-.0916c.3333-.9543.6366-1.92.8877-2.9013q.2374-.9282.42-1.8713a32.5716,32.5716,0,0,0,.095-11.7368q-.1215-.6969-.2727-1.3875a26.8047,26.8047,0,0,0-2.386-7.0151c-.03-.0558-.0685-.1051-.0995-.16A3.0619,3.0619,0,0,0,36.8038,21H34.9553a3.0619,3.0619,0,0,0-2.9515,2.8932c-.031.0553-.0692.1046-.1.16a26.812,26.812,0,0,0-2.386,7.0151q-.1509.69-.2727,1.3875a32.5739,32.5739,0,0,0,.0951,11.7368Q29.5226,45.1353,29.76,46.0643Z"/>
    <path fill="none" stroke="#000" stroke-linecap="round" stroke-linejoin="round" stroke-width="2" d="M36,38a13.7192,13.7192,0,0,1,6.9494,1.87,32.738,32.738,0,0,0-.4359-7.4143q-.1215-.6969-.2727-1.3875a26.8047,26.8047,0,0,0-2.386-7.0151c-.03-.0558-.0685-.1051-.0995-.16A3.0619,3.0619,0,0,0,36.8038,21H34.9553a3.0619,3.0619,0,0,0-2.9515,2.8932c-.031.0553-.0692.1046-.1.16a26.812,26.812,0,0,0-2.386,7.0151q-.1509.69-.2727,1.3875A32.7391,32.7391,0,0,0,28.82,40,13.7117,13.7117,0,0,1,36,38Z"/>
  </g>
</svg>
